!!!COM: Bach, Johann Sebastian	 
!!!CDT: 1685/02/21/-1750/07/28/	 
!!!OTL@@DE: Ich dank dir, lieber Herre	 
!!!SCT: BWV 347	 
!!!PC#: 2	 
!!!AGN: chorale	 
**kern	**color
*ICvox	*
*Isoprn	*
*I"Soprano	*
*>[A,A,B]	*
*>norep[A,B]	*
*>A	*
*oclefC1	*
*clefG2	*
*k[f#c#g#]	*
*A:	*
*M4/4	*
*met(c)	*
*MM100	*
4a	black
.	.
=1	=1
4a	black
4a	black
.	.
4a	black
.	.
4b	black
=2	=2
4g	black
4f#	black
.	.
4e;	black
4b	black
=3	=3
4cc#	black
4b	black
.	.
4a	black
8g#L	black
8f#J	hotpink
=4	=4
4g#	black
4f#	black
.	.
4e;	black
=:|!	=:|!
*>B	*
4ee	black
.	.
=5	=5
4dd	black
.	.
4cc#	black
.	.
4b	black
4a	black
.	.
=6	=6
8aL	black
8bJ	hotpink
4cc#	black
.	.
4b;	black
4cc#	black
=7	=7
4dd	black
.	.
4cc#	black
.	.
4b	black
.	.
4a#	black
=8	=8
2.b;	black
4e	black
.	.
=9	=9
4a	black
4b	black
.	.
4cc#	black
.	.
4dd	black
.	.
=10	=10
4ee	black
.	.
8ddL	black
8cc#J	hotpink
4b;	black
4dd	black
=11	=11
4cc#	black
.	.
4b	black
.	.
4.ee	black
.	.
.	.
8dd	hotpink
=12	=12
8cc#L	black
8b	hotpink
8a	black
8bJ	hotpink
4cc#	black
.	.
4b	black
.	.
.	.
=13	=13
2.a;	black
==	==
*-	*-
!!!YOR1: 371 vierstimmige Choralges&auml;nge von Johann Sebastian Bach,	
!!!YOR2: 4th ed. by Alfred D&ouml;rffel (Leipzig: Breitkopf und H&auml;rtel,	
!!!YOR2: c.1875). 178 pp. Plate "V.A.10".  reprint: J.S. Bach, 371 Four-Part	
!!!YOR4: Chorales (New York: Associated Music Publishers, Inc., c.1940).	
!!!SMS: B&H, 4th ed, Alfred D&ouml;rffel, c.1875, plate V.A.10	
!!!EED:  Craig Stuart Sapp	
!!!EEV:  2009/05/22	
